src/assets/images/sidebar/icon-add-project.svg

<svg width="24" height="24" viewBox="0 0 24 24" fill="none" xmlns="http://www.w3.org/2000/svg">
<path d="M17 5C18.1046 5 19 5.89543 19 7V17C19 18.1046 18.1046 19 17 19H7C5.89543 19 5 18.1046 5 17V7C5 5.89543 5.89543 5 7 5H17ZM12 7C11.4477 7 11 7.44772 11 8V11H8C7.44772 11 7 11.4477 7 12C7 12.5523 7.44772 13 8 13H11V16C11 16.5523 11.4477 17 12 17C12.5523 17 13 16.5523 13 16V13H16C16.5523 13 17 12.5523 17 12C17 11.4477 16.5523 11 16 11H13V8C13 7.44772 12.5523 7 12 7Z" fill="white"/>
</svg>

<svg xmlns="http://www.w3.org/2000/svg" width="24" height="24" fill="none" viewBox="0 0 24 24"><path fill="#2d3149" d="M17 5a2 2 0 0 1 2 2v10a2 2 0 0 1-2 2H7a2 2 0 0 1-2-2V7a2 2 0 0 1 2-2zm-5 2a1 1 0 0 0-1 1v3H8a1 1 0 1 0 0 2h3v3a1 1 0 1 0 2 0v-3h3a1 1 0 1 0 0-2h-3V8a1 1 0 0 0-1-1"/></svg>
